svgs/sharp-light/file-export.svg

<svg xmlns="http://www.w3.org/2000/svg" viewBox="0 0 576 512"><!--! Font Awesome Pro 6.6.0 by @fontawesome - https://fontawesome.com License - https://fontawesome.com/license (Commercial License) Copyright 2024 Fonticons, Inc. --><path d="M352 192l0 64 32 0 0-104L232 0 32 0 0 0 0 32 0 480l0 32 32 0 320 0 32 0 0-32 0-112-32 0 0 112L32 480 32 32l160 0 0 144 0 16 16 0 144 0zm-5.3-32L224 160l0-122.7L346.7 160zm120.6 52.7L456 201.4 433.4 224l11.3 11.3L513.4 304 208 304l-16 0 0 32 16 0 305.4 0-68.7 68.7L433.4 416 456 438.6l11.3-11.3 96-96L574.6 320l-11.3-11.3-96-96z"/></svg>

<svg xmlns="http://www.w3.org/2000/svg" viewBox="0 0 576 512"><!--! Font Awesome Pro 6.4.2 by @fontawesome - https://fontawesome.com License - https://fontawesome.com/license (Commercial License) Copyright 2023 Fonticons, Inc. --><path d="M352 192v64h32V152L232 0H32 0V32 480v32H32 352h32V480 368H352V480H32V32H192V176v16h16H352zm-5.3-32H224V37.3L346.7 160zm120.6 52.7L456 201.4 433.4 224l11.3 11.3L513.4 304H208 192v32h16H513.4l-68.7 68.7L433.4 416 456 438.6l11.3-11.3 96-96L574.6 320l-11.3-11.3-96-96z"/></svg>
